X:1
T:Twa Bonnie Maidens
M:4/4
L:1/8
K:C
 cA| G2 CCF-E DC| G2 CCF-E DC| A2 DDD-E FG|A-G FE D2| EF| G2 FE c2 BA|\
 GA GF E2 CD|E-DC-A,G,-A, CE| D2 C2 C2| cd| e2 ce d2 BG| cc AcA-G FE|\
 A2 DDD-E FG|A-G FE D2| c2| e2 ce d2 BG| c2 AcA-G FE|F-ED-CG,-A, CD|\
 D2 C2 C2||

